packages/bpk-svgs/src/icons/sm/hotels.svg

<svg xmlns="http://www.w3.org/2000/svg" viewBox="0 0 18 18" enable-background="new 0 0 18 18"><path d="M5.5 9c-.8 0-1.5-.7-1.5-1.5s.7-1.5 1.5-1.5 1.5.7 1.5 1.5-.7 1.5-1.5 1.5m8.5-3h-4c-1.1 0-2 1-2 2.1v.9h8v-.9c0-1.1-.9-2.1-2-2.1m3 8v-3c0-.6-.4-1-1-1h-13v-6c0-.5-.4-1-1-1-.5 0-1 .4-1 1v10c0 .6.4 1 1 1s1-.4 1-1v-2h12v2c0 .6.4 1 1 1s1-.4 1-1z"/></svg>

<svg xmlns="http://www.w3.org/2000/svg" viewBox="0 0 18 18"><path d="M5.5 9C4.7 9 4 8.3 4 7.5S4.7 6 5.5 6 7 6.7 7 7.5 6.3 9 5.5 9M14 6h-4C8.9 6 8 7 8 8.1V9h8v-.9C16 7 15.1 6 14 6m3 8v-3c0-.6-.4-1-1-1H3V4c0-.5-.4-1-1-1-.5 0-1 .4-1 1v10c0 .6.4 1 1 1s1-.4 1-1v-2h12v2c0 .6.4 1 1 1s1-.4 1-1z"/></svg>
